X: 1052
T:Unnamed minuet and incomplete trio
M:2/2
L:1/8
S:Armitt MS
K:G major
G2 G>G G2 B>c|d>B G>G G2 c>d|e>cg2d>Bg2|(gf)(ag) fedc|B>d B<G A<c A<F|GB
cd efga|bgfg fed^c|d2 d>dd2:||:a a>a ac'ba|g2 g>gg2 bag|fedg fedc|B2A>A
AcBA|G2G>GG2 cd|e<c a2 f<d g2|Bd ce Ac FA|G2 G>G G2:||:"Trio"B4 A2A2|G4F
GAB|dccc cBBB|BAAAA4|d4 c2 c>c|B4 ABcd|e<c c<A A<G G<F|F4G2:||:f2 a>a f2
 z|g2 b>b g2 z|
